X:1
T:Las il fauldra
T:Las il fauldra
T:Thomas Crecquillon
C:Thomas Crecquillon
%%score [ 1 2 3 4 ]
L:1/8
Q:1/4=80
M:2/2
K:F
V:1 treble nm="Superius" snm="S"
V:2 treble nm="Altus" snm="A"
V:3 treble-8 nm="Tenor" snm="T"
V:4 bass nm="Bass" snm="B"
V:1
 G8 | F4 G4 | A6 A2 | c2 c2 B2 A2 | B2 A3 G G2- | G2 F2 G2 d2- | d2 c2 B4 | A2 A2 G2 G2 | %8
w: Las,|il faul-|dra qu'ung|es- tran- gier la-|mai- * * *|* * ne pour|_ la gar-|der le sur- plus|
 F3 G A2 B2- | BA A4 G2 | A4 A4 | A2 A2 G4- | G2 F2 G2 A2 | B2 c2 d2 c2- | cB B4 A2 | B4 z2 G2- | %16
w: de _ _ son|_ _ a- *|ge, et|nous leis- sant|_ au- par- tir|pour os- ta- *||ge, par-|
 G2 G2 B4- |: B2 AG A2 A2 | A2 B2 c4 | z8 | z2 A2 A3 B | c2 d2 B2 A2- |"^#" AG G4 F2 | G2 G4 G2 |1 %24
w: * tez- _|_ en _ nuys, re-|gretz, sou- cy,||re- gretz, sou-|cy et pai- *||ne, par- tez|
[M:2/4] B4 :|2[M:2/2] AG G4 F2 || G8 |] %27
w: _|(pai)- * * *|ne.|
V:2
 D8 | D4 B,4 | C8 | z2 G2 G2 F2 |"^b" G2 F2 E2 C2 | D4 B,2 B2- | B2 A2 G4 | F2 F2 D4 | D2 F4 D2 | %9
w: Las,|il faul-|dra|qu'ung es- tran-|gier la mai- *|* ne, pour|_ la gar-|der le sur-|plus de son|
 E2 F3 E/F/ G/F/E/D/ | C D2 C D2 F2 | F2 F2 E4 | z2 D2 D2 F2 | B,2 F2 D2 F2 | G4 F4 | D2 D4 B,2 | %16
w: a- * * * * * * *|* * * ge, et|nous leis- sant|au par- tir|pour os- ta- *||ge, par- tez|
 E4 D3 E |: F6 F2 | E2 F2 G2 A2- | A2 G2 F2 ED | E4 D2 F2 | E2 D2 F2 E2 | D2 C2 D2 D2- | %23
w: en- nuys, _|_ re-|gretz, sou- cy et|_ pai- * * *|* ne, re-|gretz, sou- cy et|pai- * ne, par-|
 D2 C2 E4 |1[M:2/4] D3 E :|2[M:2/2] D2 C2 D4 || D8 |] %27
w: * tez en-|nuys _|pai- * *|ne.|
V:3
 G4 B3 c | de f4 e2 | f6 f2 | e2 e2 d2 c2 | d3 c B2 AG | A4 G4 | z4 z2 d2- | d2 c2 B4 | %8
w: Las, il _|_ _ _ faul-|dra qu'ung|es- tran- gier la|mai- * * * *|* ne|pour|_ la gar-|
 A2 d2 c2 B2 | c4 d3 e | f2 e2 d4 | c4 c2 c2 | B3 A G2 F2 | G2 A2 B2 c2 |"^b" d2 e2 c4 | %15
w: der le sur- plus|de son _|a- ge, et|nous leis- sant|au par- tir pour|os _ sta- *||
 B2 GA Bc d2- | d2 c4 B2 |: c4 z2 c2 | c2 d2 e2 f2- | f2 e4 d2- | d2 c2 d2 A2 | A2 B2 d2 c2 | %22
w: ge, par- * * * tez|_ en- *|nuys, re-|gretz, sou- cy et|_ pai- *|* * ne, re-|gretz, sou- cy et|
 B2 AG A4 | B2 d4 c2- |1[M:2/4] c2 B2 :|2[M:2/2] B2 AG A4 || G8 |] %27
w: pai- * * *|ne, par- tez|_ en-|pai- * * *|ne.|
V:4
 G,8 | B,4 G,4 | F,6 F,2 | C,D, E,F, G,2 A,2 |"^b" G,2 D,2 E,4 | D,4 z2 G,2 | B,2 F,2 G,2 G,2 | %7
w: |il faul-|dra qu'ung|es- * * * * stran-|gier la mai-|ne, pour|la gar- der le|
 D,2 F,2 G,2 G,2 | D,3 E, F,2 G,2- | G,2 F,2 B,4 | A,4 z2 D,2 | F,2 F,2 C,D, E,F, | %12
w: sur- plus de son|a- * * *||ge, et|nous leis- sant _ _ _|
 G,2 B,2 B,2 A,2 | G,2 F,2 B,2 A,2 | G,2 _E,2 F,4 | z4 G,4 | C,4 G,4 |: F,8 | z4 z2 F,2 | %19
w: _ au par- tir|pour os- ta- *|* * ge,|par-|tez en-|nuys,|re-|
 F,2 G,2 A,2 B,2 |"^#" A,4 D,4 | z2 B,,2 B,,2 C,2 |"^b" D,2 E,2 D,4 | G,2 G,2 C,4 |1[M:2/4] G,4 :|2 %25
w: gretz, sou- cy et|pai- ne,|re- gretz, sou-|cy et pai-|ne, par- tez|en-|
[M:2/2]"^b" D,2 E,2 D,4 || G,8 |] %27
w: cy et pai-|ne.|

